!!!!SEGMENT: pl-gd--ee-1638--003-019_marenzio-luca--madrigali-a-quatro-voci-i-lieti-amanti-e-le-fanciulle-tenere.krn
!!!cenid: 15xx:993
!!!COM: Marenzio, Luca
!!!COM-rismID:
!!!CDT: ~1553-1599/08/22
!!!CNT: Italian
!!!GTL: Madrigali a quatro voci
!!!OTL: I lieti amanti e le fanciulle tenere
!!!OMV: 019
!!!PDT: 1587
!!!AGN:
!!!SMS-siglum: PL-GD
!!!SMS-shelfmark: Ee 1638
!!!SMS-shelfwork: 003-019 G
!!!SMS-variant:
!!!SMS-altvar:
!!!NIFC-rismSourceID: 990039322
!!!NIFC-islandoraID: pl-gd:57883
!!!URL-pdf-islandora: https://repozytorium.nifc.pl/islandora/object/pl-gd%3A57883/datastream/PDF/view
!!!URL-scan: https://polish.musicsources.pl/pl/lokalizacje/galeria/klocki-introligatorskie/655 @EN{Scan on Polish Music Herritage in Open Access Website} @PL{Skany w portalu Dziedzictwo Muzyki Polskiej w otwartym dostępie}
!!!ONB-nifc: UWAGA: zbiór na stronach: Canto: s. 637-653, Alto: s. do 486-501, Tenore: s. do 334-349, Bassus: s. do 182-197. Uwaga: utwory podzielone wg tytułów w spisach treści dostępnych na końcu każdej księgi głosowej.
!!!AIN: 1 alto 1 bass 1 soprn 1 tenor
!!!key: G
**kern	**text	**kern	**text	**kern	**text	**kern	**text
*part4	*part4	*part3	*part3	*part2	*part2	*part1	*part1
*staff4	*staff4	*staff3	*staff3	*staff2	*staff2	*staff1	*staff1
*I"BASSO	*	*I"TENORE	*	*I"ALTO	*	*I"CANTO	*
*I'B	*	*I'T	*	*I'A	*	*I'S	*
*ICvox	*	*ICvox	*	*ICvox	*	*ICvox	*
*Ibass	*	*Itenor	*	*Ialto	*	*Isoprn	*
*clefF4	*	*clefC4	*	*clefC3	*	*clefC1	*
*k[]	*	*k[]	*	*k[]	*	*k[]	*
*G:	*	*G:	*	*G:	*	*G:	*
*M3/2	*	*M3/2	*	*M3/2	*	*M3/2	*
*met(C3)	*	*met(C3)	*	*met(C3)	*	*met(C3)	*
=1-	=1-	=1-	=1-	=1-	=1-	=1-	=1-
!!LO:TX:t=P:problem: zmienne metrum - na źródle po kluczu zapisane met(C) a kolejno met(3)	!	!	!	!	!	!	!
2G\	I	2B\	I	2d\	I	2g/	I
2E\	Lie-	2B\	Lie	2e\	Lie-	2g/	Lie-
2D/	-ti	2d\	ti	2f#X\	-ti	2a\	-ti
=2-	=2-	=2-	=2-	=2-	=2-	=2-	=2-
1G	aman-	1d	aman-	1g	aman-	1b	aman-
2C/	-ti	2e\	-ti	2g\	-ti	2cc\	-ti e
=3-	=3-	=3-	=3-	=3-	=3-	=3-	=3-
2.F\	e le	2.c\	e le	2.fny\	le	2.a\	le
4F\	fan-	4c\	fan-	4f\	fan-	4a\	fan-
2F\	-ciu-	2c\	-ciul-	2f\	-ciul-	2a\	-ciul-
=4-	=4-	=4-	=4-	=4-	=4-	=4-	=4-
2G\	-le	2B\	-le	2d\	-le	2g/	-le
2.D/	te-	2.A/	te-	2.d\	te-	2.f#X/	te-
4D/	-ne-	4A/	-ne-	4d\	-ne-	4f#/	-ne-
=5-	=5-	=5-	=5-	=5-	=5-	=5-	=5-
*M4/4	*	*M4/4	*	*M4/4	*	*M4/4	*
*met(C)	*	*met(C)	*	*met(C)	*	*met(C)	*
0.GG	-re	1G	-re	1d	-re	0g	-re
=6-	=6-	=6-	=6-	=6-	=6-	=6-	=6-
.	.	2r	.	2G/	Gi-	.	.
.	.	2G/	Gi-	4B/	-uan	.	.
!	!	!	!	!LO:SIC:v:t=custos d	!	!	!
.	.	.	.	4B/	di	.	.
!	!	!	!	!LO:LB:g=original	!	!	!
=7-	=7-	=7-	=7-	=7-	=7-	=7-	=7-
.	.	4B\	-uan	4d\	prat'	1r	.
.	.	4B\	di	4d\	in	.	.
.	.	4d\	pra-	2B/	pra-	.	.
!	!	!LO:SIC:v:t=custos B	!	!	!	!	!
.	.	4d\	-t' in	.	.	.	.
!	!	!LO:LB:g=original	!	!	!	!	!
=8-	=8-	=8-	=8-	=8-	=8-	=8-	=8-
1r	.	2B\	pra-	2G/	-to	2g/	Gi-
.	.	2G/	-to	2.d\	ra-	4b\	-uan
!	!	!	!	!	!	!LO:SIC:v:t=custos dd	!
.	.	.	.	.	.	4b\	di
!	!	!	!	!	!	!LO:LB:g=original	!
=9-	=9-	=9-	=9-	=9-	=9-	=9-	=9-
2r	.	4F#X/	ra-	.	.	4dd\	prat'
.	.	4G/	-men-	4B/	men-	4dd\	in
!LO:SIC:v:t=custos E	!	!	!	!	!	!	!
2G\	Gi-	4.d\	-tan-	4.B/	-ta	2b\	pra-
.	.	8d\	-do-	8B/	do-	.	.
!LO:LB:g=original	!	!	!	!	!	!	!
=10-	=10-	=10-	=10-	=10-	=10-	=10-	=10-
4E\	-uan	1e	ſi	4B/	-ſi	2g/	-to
4E\	di	.	.	4c/	Il	.	.
4C/	prat'	.	.	8c/	fo-	4g/	ra-
.	.	.	.	8d\	.	.	.
4C/	in	.	.	8e\	.	4cc\	-men-
.	.	.	.	8f\	.	.	.
=11-	=11-	=11-	=11-	=11-	=11-	=11-	=11-
2E\	pra-	4r	.	2g\	.	4.b\	-tan-
.	.	4G/	Il	.	.	.	.
.	.	.	.	.	.	8b\	-do-
2G\	-to	8G/	fo-	2d\	-co	2b\	-ſi
.	.	8A/	.	.	.	.	.
.	.	8B\	.	.	.	.	.
.	.	8c\	.	.	.	.	.
=12-	=12-	=12-	=12-	=12-	=12-	=12-	=12-
4F#X\	ra-	8d\	.	4r	.	4r	.
.	.	8c\	.	.	.	.	.
4G\	-men-	8B\	.	4d\	Il	4g/	Il
.	.	8A\	.	.	.	.	.
4.E\	-ta-	2G/	.	8e\	fo-	8g/	fo-
.	.	.	.	8f\	.	8a\	.
.	.	.	.	8g\	.	8b\	.
8E\	-do-	.	.	8e\	.	8cc\	.
=13-	=13-	=13-	=13-	=13-	=13-	=13-	=13-
2D/	ſi	2A/	-co	2f#X\	-co	2dd\	-co
4r	.	4.G/	&	1g\	&	2dd\	&
4G\	Il	.	.	.	.	.	.
.	.	8Fny/	l'ar-	.	.	.	.
=14-	=14-	=14-	=14-	=14-	=14-	=14-	=14-
8G\	fo-	2E/	.	.	l'ar-	2ee\	l'ar-
8A\	.	.	.	.	.	.	.
8B\	.	.	.	.	.	.	.
8c\	.	.	.	.	.	.	.
!	!	!	!	!LO:SIC:v:t=custos d	!	!	!
4d\	.	4D/	-co	2fny\	-co	2a\	-co
4D/	-co	4.d\	del	.	.	.	.
!	!	!	!	!LO:LB:g=original	!	!	!
=15-	=15-	=15-	=15-	=15-	=15-	=15-	=15-
2G\	&	.	.	2d\	del	4.b\	del
.	.	8c\	figli-	.	.	.	.
!	!	!LO:SIC:v:t=custos c	!	!	!	!	!
.	.	4B\	-ol	.	.	.	.
.	.	.	.	.	.	8a\	figli-
!	!	!LO:LB:g=original	!	!	!	!LO:SIC:v:t=custos a	!
2C/	l'ar-	4.c\	del	4.e\	fi-	2g/	-ol
.	.	8B\	fi-	8d\	-gli-	.	.
!	!	!	!	!	!	!LO:LB:g=original	!
=16-	=16-	=16-	=16-	=16-	=16-	=16-	=16-
4.Fny\	-co	2A/	-gli-	2c/	-ol	4r	.
.	.	.	.	.	.	4.a\	del
8E\	del	.	.	.	.	.	.
8D\	fi-	4A/	-ol 	4r	.	.	.
8E\	.	.	.	.	.	8g/	fig-
8F\	gli-	4.d\	di	2a\	di	2fny/	-liol
!LO:SIC:v:t=custos A	!	!	!	!	!	!	!
8G\	.	.	.	.	.	.	.
!LO:LB:g=original	!	!	!	!	!	!	!
=17-	=17-	=17-	=17-	=17-	=17-	=17-	=17-
4A\	-ol	.	.	.	.	.	.
.	.	8c\	Ve-	.	.	.	.
4c\	di	2c\	.	2g\	Ve-	4e/	di
4.G\	Ve-	.	.	.	.	4.d/	Ve-
.	.	4B\	-ne-	4g\	-ne-	.	.
8G\	-ne-	.	.	.	.	8c/	-ne-
=18-	=18-	=18-	=18-	=18-	=18-	=18-	=18-
1C	-re	1c	-re	1g	-re	1e	-re
=19-	=19-	=19-	=19-	=19-	=19-	=19-	=19-
0r	.	0r	.	2r	.	1cc	Non
.	.	.	.	2c/	Non	.	.
=20-	=20-	=20-	=20-	=20-	=20-	=20-	=20-
.	.	.	.	2g\	e-	2.b\	e-
.	.	.	.	2e\	-ra	.	.
.	.	.	.	.	.	4cc\	-ra
=21-	=21-	=21-	=21-	=21-	=21-	=21-	=21-
1r	.	1r	.	2f\	ge-	2a\	ge-
.	.	.	.	2a\	-lo-	2cc\	-lo-
=22-	=22-	=22-	=22-	=22-	=22-	=22-	=22-
2r	.	2r	.	1g	-ſia	1b	-ſia
2G\	Non	2d\	Non	.	.	.	.
=23-	=23-	=23-	=23-	=23-	=23-	=23-	=23-
2D/	e-	2.c\	e-	1r	.	1r	.
2E\	-ra	.	.	.	.	.	.
.	.	4B\	-ra	.	.	.	.
=24-	=24-	=24-	=24-	=24-	=24-	=24-	=24-
2F\	ge-	2A/	ge-	2r	.	2r	.
2A\	-lo-	2c\	-lo-	4r	.	2cc\	Non
.	.	.	.	4c/	Non	.	.
=25-	=25-	=25-	=25-	=25-	=25-	=25-	=25-
2G\	ſia	2d\	ſia	2g\	e-	2.b\	e-
2r	.	2r	.	2e\	-ra	.	.
.	.	.	.	.	.	4cc\	-ra
=26-	=26-	=26-	=26-	=26-	=26-	=26-	=26-
0r	.	0r	.	2f\	ge-	2a\	ge-
.	.	.	.	2a\	-lo-	2cc\	-lo-
=27-	=27-	=27-	=27-	=27-	=27-	=27-	=27-
!	!	!	!	!LO:SIC:v:t=custos d	!	!LO:SIC:v:t=custos b	!
.	.	.	.	1g	-ſia	1b	-ſia
!	!	!	!	!LO:LB:g=original	!	!LO:LB:g=original	!
=28-	=28-	=28-	=28-	=28-	=28-	=28-	=28-
*M3/2	*	*M3/2	*	*M3/2	*	*M3/2	*
*met(O.3)	*	*met(O3)	*	*met(O3)	*	*met(O3)	*
2G\	ma	2B\	ma	1.r	.	1.r	.
2G\	ſol-	2d\	ſol-	.	.	.	.
!	!	!LO:SIC:v:t=custos B	!	!	!	!	!
2A\	-laz-	2c\	-laz-	.	.	.	.
!	!	!LO:LB:g=original	!	!	!	!	!
=29-	=29-	=29-	=29-	=29-	=29-	=29-	=29-
2.G\	-zan-	2.B\	-zan-	2d\	ma	2b\	ma
.	.	.	.	2g\	ſol-	2dd\	ſol-
4G\	-do-	4B\	-do-	.	.	.	.
2C/	-ſi	2G/	ſi	2e\	-laz-	2cc\	-laz-
=30-	=30-	=30-	=30-	=30-	=30-	=30-	=30-
2G\	ma	2B\	ma	2.d\	-zan-	2.b\	-zan-
2G\	ſol-	2d\	ſol-	.	.	.	.
.	.	.	.	4g\	-do-	4b\	-do-
!LO:SIC:v:t=custos G	!	!	!	!	!	!	!
2A\	-laz-	2c\	-laz-	2e\	-ſi	2a\	-ſi
!LO:LB:g=original	!	!	!	!	!	!	!
=31-	=31-	=31-	=31-	=31-	=31-	=31-	=31-
2.G\	-zan-	2.B\	-zan-	2g\	ma	2dd\	ma
.	.	.	.	2g\	ſol-	2dd\	ſol-
4G\	-do-	4B\	-do-	.	.	.	.
2C/	-ſi	2G/	-ſi	2e\	-laz-	2cc\	-laz-
=32-	=32-	=32-	=32-	=32-	=32-	=32-	=32-
1.r	.	1.r	.	2.g\	-zan-	2.b\	-zan-
.	.	.	.	4g\	-do-	4b\	-do-
.	.	.	.	2c/	-ſi	2g/	-ſi
=33-	=33-	=33-	=33-	=33-	=33-	=33-	=33-
2G\	Mo-	2d\	Mo-	2g\	Mo-	2b\	Mo-
2D/	-ue-	2d\	-ue-	2f#X\	-ue-	2a\	-uean'
2G\	-ano i	2d\	-ano i	2g\	-ano i	2b\	i
=34-	=34-	=34-	=34-	=34-	=34-	=34-	=34-
2F\	dol-	2f\	dol-	2a\	dol-	2cc\	dol-
4F\	-ci-	4f\	-ci-	4a\	-ci	4dd\	-ci
2F\	-bal-	2f\	-bal-	2a\	bal-	2cc\	bal-
!	!	!	!	!LO:SIC:v:t=custos g	!	!LO:SIC:v:t=custos b	!
4F\	-lia	4f\	-lia	4a\	-lia	4cc\	-lia
!	!	!	!	!LO:LB:g=original	!	!LO:LB:g=original	!
=35-	=35-	=35-	=35-	=35-	=35-	=35-	=35-
2.G\	ſuõ(n)	2.d\	ſuon	2g\	ſuon	2.b\	ſuon
.	.	.	.	2d\	di	.	.
4F\	di	4A/	di	.	.	4a\	di
4.E\	ce-	4.B\	ce-	4.e\	ce-	4.g/	ce-
8E\	-te-	8B\	-te-	8e\	-te-	8g/	-te-
=36-	=36-	=36-	=36-	=36-	=36-	=36-	=36-
!	!	!LO:SIC:v:t=custos d	!	!	!	!	!
1.D	-ra	1.d	-ra	1.f#X	-ra	1.a	-ra
=37-	=37-	=37-	=37-	=37-	=37-	=37-	=37-
2G\	Mo-	2d\	Mo-	2g\	Mo-	2b\	Mo-
2D/	-uean'	2d\	-uean'	2fny\	-uean'	2a\	-uean'
2G\	i	2d\	i	2g\	i	2b\	i
=38-	=38-	=38-	=38-	=38-	=38-	=38-	=38-
2F\	dol-	2f\	dol-	2a\	dol-	2cc\	dol-
4F\	-ci	4f\	-ci	4a\	-ci	4dd\	-ci
2F\	bal-	2f\	bal-	2a\	bal-	2cc\	bal-
!LO:SIC:v:t=custos G	!	!	!	!	!	!	!
4F\	-li	4f\	-li	4a\	-li	4cc\	-li
!LO:LB:g=original	!	!	!	!	!	!	!
=39-	=39-	=39-	=39-	=39-	=39-	=39-	=39-
2.G\	a ſuon	2.d\	a ſuon	2.g\	a ſuon	2.b\	a ſuon
4C/	di	4c\	di-	4e\	di	4g/	di
4.D/	ce-	4.A/	-ce-	4.d\	ce-	4.f#X/	ce-
8D/	-te-	8A/	-te-	8d\	-te-	8f#/	-te-
=40-	=40-	=40-	=40-	=40-	=40-	=40-	=40-
*M4/4	*	*M4/4	*	*M4/4	*	*M4/4	*
*met(C)	*	*met(C)	*	*met(C)	*	*met(C)	*
1GG	-ra	1G	-ra	1d	-ra	1g	-ra
=41-	=41-	=41-	=41-	=41-	=41-	=41-	=41-
2G\	E'n	4r	.	4r	.	4r	.
.	.	4G/	E'n	4d\	E'n	4b\	E'n
2.G\	gui-	2.B\	gui-	2.g\	gui-	2.dd\	fui-
=42-	=42-	=42-	=42-	=42-	=42-	=42-	=42-
4A\	ſa	4A/	-ſa	4e\	-ſa	4cc\	-ſa
4E\	di	4G#X/	di	4e\	di	4b\	di
!	!	!	!	!LO:SIC:v:t=custos e	!	!	!
4F\	co-	4A/	co-	4c/	co-	4a\	co-
!	!	!	!	!LO:LB:g=original	!	!	!
=43-	=43-	=43-	=43-	=43-	=43-	=43-	=43-
2E\	-lõ(m)bi	2B\	-lõ(m)bi	2e\	-lom-	2g#X/	-lom-
2E\	ogn'-	2B\	ogn'-	2e\	-bi	2g#/	-bi
=44-	=44-	=44-	=44-	=44-	=44-	=44-	=44-
2A\	-hor	2c\	-hor	4r	.	4r	.
.	.	.	.	4e\	obn'-	4a\	ogn'-
4r	.	4r	.	2g\	-hor	2b\	-hor
!	!	!LO:SIC:v:t=custos e	!	!	!	!	!
4G\	ogn'-	4d\	ogn'-	.	.	.	.
!	!	!LO:LB:g=original	!	!	!	!	!
=45-	=45-	=45-	=45-	=45-	=45-	=45-	=45-
2c\	-hor	2e\	-hor	4r	.	4r	.
.	.	.	.	4c/	ba-	4e/	ba-
2r	.	2r	.	4.B/	-cian-	4.d/	-cia-
.	.	.	.	8B/	-do-	8d/	-udo-
=46-	=46-	=46-	=46-	=46-	=46-	=46-	=46-
4r	.	4r	.	2c/	-ſi	2c/	-ſi
*	*ij	*	*	*	*	*	*
4C/	ogn-	4e\	ogn'-	.	.	.	.
2c\	-hor	2e\	-hor	4r	.	4r	.
.	.	.	.	4c/	ba-	4e/	ba-
*	*Xij	*	*	*	*	*	*
=47-	=47-	=47-	=47-	=47-	=47-	=47-	=47-
1r	.	1r	.	4.B/	-cian-	4.d/	-cian-
.	.	.	.	8B/	-do-	8d/	-do-
.	.	.	.	2c/	-ſi	2c/	-ſi
=48-	=48-	=48-	=48-	=48-	=48-	=48-	=48-
2r	.	2r	.	2r	.	2r	.
1F\	O	1f\	O	1a\	O	1cc\	O
=49-	=49-	=49-	=49-	=49-	=49-	=49-	=49-
4F\	pu-	4f\	pu-	4a\	pu-	4cc\	pu-
!LO:SIC:v:t=custos D	!	!	!	!	!	!	!
4G\	-ra	4d\	-ra	4g\	-ra	4b\	-ra
!LO:LB:g=original	!	!	!	!	!	!	!
=50-	=50-	=50-	=50-	=50-	=50-	=50-	=50-
1D	fe-	1d	fe-	1f	fe-	1a	fe-
=51-	=51-	=51-	=51-	=51-	=51-	=51-	=51-
4E\	-de	4B\	-de o	4e\	-de o	4g#X/	-de o
2E\	o dol-	2B\	dol-	2e\	dol-	2g#/	dol-
4E\	-ce	4B\	-ce	4e\	-ce	4g#/	-ce
=52-	=52-	=52-	=52-	=52-	=52-	=52-	=52-
2E\	uſan-	2B\	uſan-	2e\	uſan-	2gny/	uſan-
!	!	!	!	!LO:SIC:v:t=custos g	!	!LO:SIC:v:t=custos b	!
2A\	-za	2c\	-za	2e\	-za	2a\	-za
!	!	!	!	!LO:LB:g=original	!	!LO:LB:g=original	!
=53-	=53-	=53-	=53-	=53-	=53-	=53-	=53-
4.G\	ve-	4.d\	ve-	4.g\	ve-	4.b\	ve-
8G\	-te-	8d\	-te-	8g\	-te-	8b\	-te-
2G\	-ra	2d\	-ra	2g\	-ra	2b\	-ra
=54-	=54-	=54-	=54-	=54-	=54-	=54-	=54-
2.C/	Hor	2r	.	0r	.	0r	.
.	.	2.c\	Hor	.	.	.	.
4C/	co-	.	.	.	.	.	.
=55-	=55-	=55-	=55-	=55-	=55-	=55-	=55-
1F	-no-	.	.	.	.	.	.
.	.	4c\	co-	.	.	.	.
.	.	2A/	-no-	.	.	.	.
=56-	=56-	=56-	=56-	=56-	=56-	=56-	=56-
2E\	ſco	2B\	ſco	1r	.	1r	.
!	!	!LO:SIC:v:t=custos d	!	!	!	!	!
2E\	ben	2c\	ben	.	.	.	.
!	!	!LO:LB:g=original	!	!	!	!	!
=57-	=57-	=57-	=57-	=57-	=57-	=57-	=57-
0D	io	1d	io	2r	.	2.a\	Hor
.	.	.	.	2.f\	Hor	.	.
.	.	.	.	.	.	4a\	co-
=58-	=58-	=58-	=58-	=58-	=58-	=58-	=58-
.	.	0r	.	.	.	1dd	-no-
.	.	.	.	4f\	co-	.	.
.	.	.	.	2d\	-no-	.	.
=59-	=59-	=59-	=59-	=59-	=59-	=59-	=59-
1r	.	.	.	2e\	ſco	2cc\	ſco
.	.	.	.	2f\	ben	2cc\	ben
=60-	=60-	=60-	=60-	=60-	=60-	=60-	=60-
4r	.	4r	.	1g	io	2b\	io
4G\	che'l	4d\	che'l	.	.	.	.
2c\	mon-	4e\	mon-	.	.	2r	.
.	.	4c\	-do	.	.	.	.
=61-	=61-	=61-	=61-	=61-	=61-	=61-	=61-
2B\	-do	4.d\	in-	4r	.	4r	.
.	.	.	.	4G/	che'l	4b\	che'l
.	.	8d\	-ſta-	.	.	.	.
4.A\	inſta-	2e\	-bile	2c/	mon-	4ee\	mon-
.	.	.	.	.	.	4cc\	-do
!LO:SIC:v:t=custos G	!	!	!	!	!	!	!
8A\	-bi-	.	.	.	.	.	.
!LO:LB:g=original	!	!	!	!	!	!	!
=62-	=62-	=62-	=62-	=62-	=62-	=62-	=62-
4G\	-le	4r	.	2B/	-do	4.dd\	in-
4G\	che'l	4B\	che'l	.	.	.	.
.	.	.	.	.	.	8dd\	-ſta-
2c\	mon-	4e\	mon-	4.A/	in-	2ee\	-bile
.	.	4c\	-do	.	.	.	.
.	.	.	.	8A/	ſta-	.	.
=63-	=63-	=63-	=63-	=63-	=63-	=63-	=63-
2B\	-do	4.d\	in-	4G/	-bile	4r	.
.	.	.	.	4G/	che'l	2g/	che'l
.	.	8d\	ſta-	.	.	.	.
4.A\	inſta-	4e\	-bile	2c/	mon-	.	.
*	*	*	*ij	*	*	*	*
.	.	4A/	che'l	.	.	4f#X/	mõ(n)
8A\	-bi-	.	.	.	.	.	.
=64-	=64-	=64-	=64-	=64-	=64-	=64-	=64-
4G\	-le	4d\	mon-	2B/	-do	2g/	do
4G\	in-	4d\	-do	.	.	.	.
4.C/	-ſta-	4.c\	ſta-	4.e\	in	4.g/	in-
!	!	!	!	!	!	!LO:SIC:v:t=custos g	!
8C/	-bi-	8c\	-bi-	8e\	ſsta-	8g/	-ſsta-
!	!	!	!	!	!	!LO:LB:g=original	!
=65-	=65-	=65-	=65-	=65-	=65-	=65-	=65-
!	!	!LO:SIC:v:t=custos c	!	!LO:SIC:v:t=custos g	!	!	!
1G	-le	1B	-le	1d	bile	1g	-bile
*	*	*	*Xij	*	*	*	*
!	!	!LO:LB:g=original	!	!LO:LB:g=original	!	!	!
=66-	=66-	=66-	=66-	=66-	=66-	=66-	=66-
!	!	!	!	!LO:N:vis=2	!	!	!
4r	.	4r	.	4r	.	4r	.
4.C/	Tan-	4.c\	Tan-	4.g\	Tan-	4.ee\	Ton-
8C/	-to	8c\	-to	8g\	-to	8ee\	-to
4D/	peg-	4A/	peg-	4f\	peg-	4dd\	peg-
=67-	=67-	=67-	=67-	=67-	=67-	=67-	=67-
4.F\	-gio-	4.A/	-gio-	4.a\	-gio-	4.cc\	-gio-
8G\	-ra	8d\	-ra	8g\	-ra	8b\	-ra
4D/	piu	4d\	piu	4f#X\	piu	4a\	piu
4.BB/	quan-	4.d\	quan-	4.g\	quan-	4.b\	quã(n)-
=68-	=68-	=68-	=68-	=68-	=68-	=68-	=68-
8C/	-to	8c\	-to	8e\	-to	8a\	-to
4E\	piu	4B\	piu	4g\	piu	4g/	piu
4.D/	in-	4.d\	in-	4.f#X\	in-	4.a\	in-
!LO:SIC:v:t=custos GG	!	!	!	!	!	!	!
8D/	-uete-	8d\	-ue-	8f#\	-ue-	8a\	-ue-
!LO:LB:g=original	!	!	!	!	!	!	!
=69-	=69-	=69-	=69-	=69-	=69-	=69-	=69-
2GG/	-ra	1d	-tera	2g\	-tera	1g	-tera
1G\	quan-	.	.	1d\	quan-	.	.
=70-	=70-	=70-	=70-	=70-	=70-	=70-	=70-
.	.	1Gny	quan-	.	.	1b	quã(n)-
2GG/	-to	.	.	2d\	-to	.	.
=71-	=71-	=71-	=71-	=71-	=71-	=71-	=71-
1C	piu	2G/	-to	1e	piu	4cc\	-to
.	.	.	.	.	.	8ee\	piu
.	.	.	.	.	.	8dd\	in-
.	.	2A/	piu	.	.	8cc\	.
.	.	.	.	.	.	8b\	.
.	.	.	.	.	.	8a\	.
.	.	.	.	.	.	8g\	.
=72-	=72-	=72-	=72-	=72-	=72-	=72-	=72-
2.D/	in-	4.B\	in	2.d\	in-	4f#X/	.
.	.	.	.	.	.	2g/	-ve-
.	.	16A/	ve-	.	.	.	.
.	.	16G/	.	.	.	.	.
.	.	4.A/	.	.	.	.	.
4D/	-uete-	.	.	4d\	-uete-	4f#X/	-te-
.	.	8A/	te-	.	.	.	.
=73-	=73-	=73-	=73-	=73-	=73-	=73-	=73-
00GG	-ra.-	00G	-ra.	00d	-ra.	00g	-ra.
==	==	==	==	==	==	==	==
*-	*-	*-	*-	*-	*-	*-	*-
!!!system-decoration: [(s1,s2,s3,s4)]
!!!ENC: Marta Opryszak
!!!END: 2022-06-27
!!!ENC: Jan Barakat
!!!END: 2022-07-12
